X: 40145
T: Tighe's Rare
R: reel
M: 4/4
K: Dmajor
|:B2BA Bdd2|D2FD DDFA|BBAd Bdef|dBAF FEGA:|
B2e2 egfe|d3A Bcdf|e2e2 egfe|dBAF EFGA|
B2e2 egfe|d3A Bcdf|edeg fefe|dBAF EFGA||

